X: 25871
T: Matilda's
R: jig
M: 6/8
K: Gmajor
G2B dBG|eaf g2g|ged Bde|ged ABA|
GAB dBG|eaf g2a|bag age|1 deg edB:|2 deg ega||
|:b2g age|deg ega|~b3 age|deg ~a3|
bga egd|bga egd|gab d'ba|1 ged ega:|2 ged g3||

